svg/weather/dry_line.svg

<?xml version="1.0" encoding="UTF-8"?>
<svg width="24px" height="24px" viewBox="0 0 24 24" version="1.1" xmlns="http://www.w3.org/2000/svg" xmlns:xlink="http://www.w3.org/1999/xlink">
    <title>dry_line</title>
    <g id="Icon" stroke="none" stroke-width="1" fill="none" fill-rule="evenodd">
        <g id="Weather" transform="translate(-193.000000, -192.000000)">
            <g id="dry_line" transform="translate(193.000000, 192.000000)">
                <path d="M24,0 L24,24 L0,24 L0,0 L24,0 Z M12.5935,23.2578 L12.5819,23.2595 L12.5109,23.295 L12.4919,23.2987 L12.4767,23.295 L12.4057,23.2595 C12.3958,23.2564 12.387,23.259 12.3821,23.2649 L12.378,23.2758 L12.3609,23.7031 L12.3659,23.7235 L12.3769,23.7357 L12.4805,23.8097 L12.4953,23.8136 L12.5071,23.8097 L12.6107,23.7357 L12.6233,23.7197 L12.6267,23.7031 L12.6096,23.2758 C12.6076,23.2657 12.601,23.2593 12.5935,23.2578 Z M12.8584,23.1453 L12.8445,23.1473 L12.6598,23.2397 L12.6499,23.2499 L12.6472,23.2611 L12.6651,23.6906 L12.6699,23.7034 L12.6784,23.7105 L12.8793,23.8032 C12.8914,23.8069 12.9022,23.803 12.9078,23.7952 L12.9118,23.7812 L12.8777,23.1665 C12.8753,23.1546 12.8674,23.147 12.8584,23.1453 Z M12.143,23.1473 C12.1332,23.1424 12.1222,23.1453 12.1156,23.1526 L12.1099,23.1665 L12.0758,23.7812 C12.0751,23.7927 12.0828,23.8019 12.0926,23.8046 L12.1083,23.8032 L12.3092,23.7105 L12.3186,23.7024 L12.3225,23.6906 L12.3404,23.2611 L12.3372,23.2485 L12.3278,23.2397 L12.143,23.1473 Z" id="MingCute" fill-rule="nonzero"></path>
                <path d="M7.3713,3.0713 C7.88409,3.27641 8.1335,3.85838 7.92839,4.37117 L7.10057,6.44073 C6.48908,7.96945 6.66939,9.70122 7.5827,11.0712 L8.08123,11.819 C9.35986,13.7369 9.6123,16.1614 8.75621,18.3016 L7.92839,20.3712 C7.72328,20.884 7.14131,21.1334 6.62852,20.9283 C6.11574,20.7231 5.86632,20.1412 6.07144,19.6284 L6.89926,17.5588 C7.51075,16.0301 7.33043,14.2983 6.41713,12.9284 L7.24918,12.3737 L6.41713,12.9284 L5.9186,12.1806 C4.63997,10.2626 4.38753,7.83815 5.24361,5.69794 L6.07144,3.62839 C6.27655,3.1156 6.85852,2.86619 7.3713,3.0713 Z M12.3713,3.0713 C12.8841,3.27641 13.1335,3.85838 12.9284,4.37117 L12.1006,6.44073 C11.4891,7.96945 11.6694,9.70122 12.5827,11.0712 L13.0812,11.819 C14.3599,13.7369 14.6123,16.1614 13.7562,18.3016 L12.9284,20.3712 C12.7233,20.884 12.1413,21.1334 11.6285,20.9283 C11.1157,20.7231 10.8663,20.1412 11.0714,19.6284 L11.8993,17.5588 C12.5107,16.0301 12.3304,14.2983 11.4171,12.9284 L10.9186,12.1806 C9.63997,10.2626 9.38753,7.83815 10.2436,5.69794 L11.0714,3.62839 C11.2765,3.1156 11.8585,2.86619 12.3713,3.0713 Z M17.3713,3.0713 C17.8841,3.27641 18.1335,3.85838 17.9284,4.37117 L17.1006,6.44073 C16.4891,7.96945 16.6694,9.70122 17.5827,11.0712 L18.0812,11.819 C19.3599,13.7369 19.6123,16.1614 18.7562,18.3016 L17.9284,20.3712 C17.7233,20.884 17.1413,21.1334 16.6285,20.9283 C16.1157,20.7231 15.8663,20.1412 16.0714,19.6284 L16.8993,17.5588 C17.5107,16.0301 17.3304,14.2983 16.4171,12.9284 L15.9186,12.1806 C14.64,10.2626 14.3875,7.83815 15.2436,5.69794 L16.0714,3.62839 C16.2766,3.1156 16.8585,2.86619 17.3713,3.0713 Z" id="形状" fill="#09244B"></path>
            </g>
        </g>
    </g>
</svg>

<svg xmlns="http://www.w3.org/2000/svg" width="24" height="24"><g fill="none" fill-rule="evenodd"><path d="M24 0v24H0V0h24ZM12.594 23.258l-.012.002-.071.035-.02.004-.014-.004-.071-.036c-.01-.003-.019 0-.024.006l-.004.01-.017.428.005.02.01.013.104.074.015.004.012-.004.104-.074.012-.016.004-.017-.017-.427c-.002-.01-.009-.017-.016-.018Zm.264-.113-.014.002-.184.093-.01.01-.003.011.018.43.005.012.008.008.201.092c.012.004.023 0 .029-.008l.004-.014-.034-.614c-.003-.012-.01-.02-.02-.022Zm-.715.002a.023.023 0 0 0-.027.006l-.006.014-.034.614c0 .012.007.02.017.024l.015-.002.201-.093.01-.008.003-.011.018-.43-.003-.012-.01-.01-.184-.092Z"/><path fill="#09244B" d="M7.371 3.071a1 1 0 0 1 .557 1.3l-.827 2.07a5 5 0 0 0 .482 4.63l.498.748a7 7 0 0 1 .675 6.483l-.828 2.07a1 1 0 1 1-1.857-.744l.828-2.07a5 5 0 0 0-.482-4.63l.832-.554-.832.554-.498-.747a7 7 0 0 1-.675-6.483l.827-2.07a1 1 0 0 1 1.3-.557Zm5 0a1 1 0 0 1 .557 1.3l-.827 2.07a5 5 0 0 0 .482 4.63l.498.748a7 7 0 0 1 .675 6.483l-.828 2.07a1 1 0 0 1-1.857-.744l.828-2.07a5 5 0 0 0-.482-4.63l-.498-.747a7 7 0 0 1-.675-6.483l.827-2.07a1 1 0 0 1 1.3-.557Zm5 0a1 1 0 0 1 .557 1.3l-.827 2.07a5 5 0 0 0 .482 4.63l.498.748a7 7 0 0 1 .675 6.483l-.828 2.07a1 1 0 0 1-1.857-.744l.828-2.07a5 5 0 0 0-.482-4.63l-.498-.747a7 7 0 0 1-.675-6.483l.827-2.07a1 1 0 0 1 1.3-.557Z"/></g></svg>
